_includes/icons/ios-english-mustache.svg

<svg fill="#666" height="50" viewBox="0 0 50 50" width="50" xmlns="http://www.w3.org/2000/svg"><path d="m20.4375 18c-1.449219 0-2.761719.605469-3.75 1.59375-.003906 0-.167969.164063-.1875.1875-1.402344 1.464844-5.574219 5.21875-9 5.21875-2.425781 0-4.910156-.5-6.46875-4 0 0-1.371094 11 12.03125 11 4.859375 0 8.535156-.996094 10.9375-3.375.289063-.257812.546875-.558594.78125-.875v-.03125c.078125-.109375.144531-.230469.21875-.34375.074219.113281.140625.234375.21875.34375v.03125c.234375.316406.492188.617188.78125.875 2.402344 2.378906 6.078125 3.375 10.9375 3.375 13.402344 0 12.03125-11 12.03125-11-1.558594 3.5-4.042969 4-6.46875 4-3.425781 0-7.597656-3.75-9-5.21875-.019531-.023437-.183594-.1875-.1875-.1875-.988281-.988281-2.300781-1.59375-3.75-1.59375-1.878906 0-3.558594 1.019531-4.5625 2.5625-1.003906-1.542969-2.683594-2.5625-4.5625-2.5625zm0 2c1.957031 0 3.5625 1.792969 3.5625 4 0 .9375-.277344 1.835938-.8125 2.5625l-.0625.0625c-.148437.191406-.300781.351563-.46875.5l-.0625.0625c-1.902344 1.882813-5.023437 2.8125-9.53125 2.8125-3.777344 0-6.527344-.953125-8.1875-2.8125-.167969-.191406-.328125-.363281-.46875-.5625 1.09375.316406 2.15625.375 3.09375.375 4.628906 0 9.527344-4.859375 10.46875-5.84375l.15625-.15625c.652344-.652344 1.453125-1 2.3125-1zm9.125 0c.859375 0 1.660156.347656 2.3125 1l.15625.125c.011719.011719-.007812.023438 0 .03125.929688.972656 5.839844 5.84375 10.46875 5.84375.933594 0 2-.058594 3.09375-.375-.140625.199219-.300781.375-.46875.5625-1.65625 1.859375-4.410156 2.8125-8.1875 2.8125-4.507812 0-7.628906-.929687-9.53125-2.8125l-.0625-.0625c-.160156-.144531-.304687-.289062-.46875-.5l-.0625-.0625c-.535156-.726562-.8125-1.625-.8125-2.5625 0-2.207031 1.605469-4 3.5625-4z"/></svg>

<svg xmlns="http://www.w3.org/2000/svg" viewBox="0 0 50 50" width="50" height="50" fill="#666"><path d="M 20.4375 18 C 18.988281 18 17.675781 18.605469 16.6875 19.59375 C 16.683594 19.59375 16.519531 19.757813 16.5 19.78125 C 15.097656 21.246094 10.925781 25 7.5 25 C 5.074219 25 2.589844 24.5 1.03125 21 C 1.03125 21 -0.339844 32 13.0625 32 C 17.921875 32 21.597656 31.003906 24 28.625 C 24.289063 28.367188 24.546875 28.066406 24.78125 27.75 C 24.78125 27.75 24.78125 27.71875 24.78125 27.71875 C 24.859375 27.609375 24.925781 27.488281 25 27.375 C 25.074219 27.488281 25.140625 27.609375 25.21875 27.71875 C 25.21875 27.71875 25.21875 27.75 25.21875 27.75 C 25.453125 28.066406 25.710938 28.367188 26 28.625 C 28.402344 31.003906 32.078125 32 36.9375 32 C 50.339844 32 48.96875 21 48.96875 21 C 47.410156 24.5 44.925781 25 42.5 25 C 39.074219 25 34.902344 21.25 33.5 19.78125 C 33.480469 19.757813 33.316406 19.59375 33.3125 19.59375 C 32.324219 18.605469 31.011719 18 29.5625 18 C 27.683594 18 26.003906 19.019531 25 20.5625 C 23.996094 19.019531 22.316406 18 20.4375 18 Z M 20.4375 20 C 22.394531 20 24 21.792969 24 24 C 24 24.9375 23.722656 25.835938 23.1875 26.5625 L 23.125 26.625 C 22.976563 26.816406 22.824219 26.976563 22.65625 27.125 L 22.59375 27.1875 C 20.691406 29.070313 17.570313 30 13.0625 30 C 9.285156 30 6.535156 29.046875 4.875 27.1875 C 4.707031 26.996094 4.546875 26.824219 4.40625 26.625 C 5.5 26.941406 6.5625 27 7.5 27 C 12.128906 27 17.027344 22.140625 17.96875 21.15625 L 18.125 21 C 18.777344 20.347656 19.578125 20 20.4375 20 Z M 29.5625 20 C 30.421875 20 31.222656 20.347656 31.875 21 L 32.03125 21.125 C 32.042969 21.136719 32.023438 21.148438 32.03125 21.15625 C 32.960938 22.128906 37.871094 27 42.5 27 C 43.433594 27 44.5 26.941406 45.59375 26.625 C 45.453125 26.824219 45.292969 27 45.125 27.1875 C 43.46875 29.046875 40.714844 30 36.9375 30 C 32.429688 30 29.308594 29.070313 27.40625 27.1875 L 27.34375 27.125 C 27.183594 26.980469 27.039063 26.835938 26.875 26.625 L 26.8125 26.5625 C 26.277344 25.835938 26 24.9375 26 24 C 26 21.792969 27.605469 20 29.5625 20 Z"/></svg>
